source/images/icon-performance.svg

<svg height="57" viewBox="0 0 65 57" width="65" xmlns="http://www.w3.org/2000/svg"><g fill="#0093c9" fill-rule="evenodd" transform="translate(0 -1)"><path d="m15.7244848 27.2164848-10.65606056 11.0874243v18.7111364c0 .5229545.42840909.9513636.95628788.9513636h12.93598488c.5278788 0 .9562878-.4234849.9562878-.9513636v-28.7024243l-2.983106-1.0961364z"/><path d="m42.0768636 35.9143712h-12.9399242c-.5278788 0-.9503788.4234849-.9503788.9523485v20.1490151c0 .5278788.4225.9553031.9503788.9553031h12.9399242c.5278788 0 .9513637-.4274243.9513637-.9553031v-20.1490151c0-.5288636-.4234849-.9523485-.9513637-.9523485"/><path d="m60.882447 15.3868788-2.3488637-1.9618182-8.5041666 9.275303v34.3150758c0 .5229545.4284091.9513636.9503788.9513636h12.9399242c.5278788 0 .9562879-.4234848.9562879-.9513636v-41.3094697c-.0551515.0285606-.104394.0699242-.1595455.0935606-.4934091.2590152-1.0498485.3988636-1.6082576.3988636-.8105303 0-1.6023484-.2885606-2.2257575-.8115151"/><path d="m1.90765152 36.8753864c.50227272 0 1.00060606-.1989394 1.37878787-.5879546l12.17371211-12.6700757 21.3091667 7.8413636c.727803.2639394 1.5432576.0699242 2.0662121-.5022727l19.6231061-21.404697 4.5893939 3.8389394c.2245455.1831818.5377273.2176515.7967424.084697.26-.1359091.4136364-.4136364.3890152-.7081061l-.9956818-11.12189394c-.0344697-.39886363-.3890152-.69234848-.786894-.65787878l-11.1287879.99568181c-.2875757.02560606-.5318181.22454546-.6214394.50325758-.0295454.08962121-.0393939.18318182-.0295454.27871212.0137879.18909091.1043939.36340909.2540909.4875l4.5992424 3.84878788-18.635303 20.32924243-21.2796212-7.8265909c-.7130303-.26-1.5097727-.0797727-2.0366667.467803l-13.03939392 13.572197c-.73272727.7622727-.70712121 1.9667424.05416667 2.6984848.36931818.3545455.84204545.5328031 1.31969697.5328031"/></g></svg>

<?xml version="1.0" encoding="UTF-8"?>
<svg width="65px" height="57px" viewBox="0 0 65 57" version="1.1" xmlns="http://www.w3.org/2000/svg" xmlns:xlink="http://www.w3.org/1999/xlink">
    <!-- Generator: Sketch 41.1 (35376) - https://www.sketchapp.com -->
    <title>icon-performance</title>
    <desc>Created with Sketch.</desc>
    <defs></defs>
    <g id="Updated-HOME" stroke="none" stroke-width="1" fill="none" fill-rule="evenodd">
        <g id="home-updated" transform="translate(-964.000000, -639.000000)" fill="#0093C9">
            <g id="Performance" transform="translate(944.000000, 600.000000)">
                <g id="icon-performance" transform="translate(20.000000, 38.000000)">
                    <path d="M15.7244848,27.2164848 L5.06842424,38.3039091 L5.06842424,57.0150455 C5.06842424,57.538 5.49683333,57.9664091 6.02471212,57.9664091 L18.960697,57.9664091 C19.4885758,57.9664091 19.9169848,57.5429242 19.9169848,57.0150455 L19.9169848,28.3126212 L16.9338788,27.2164848 L15.7244848,27.2164848 Z" id="Fill-1"></path>
                    <path d="M42.0768636,35.9143712 L29.1369394,35.9143712 C28.6090606,35.9143712 28.1865606,36.3378561 28.1865606,36.8667197 L28.1865606,57.0157348 C28.1865606,57.5436136 28.6090606,57.9710379 29.1369394,57.9710379 L42.0768636,57.9710379 C42.6047424,57.9710379 43.0282273,57.5436136 43.0282273,57.0157348 L43.0282273,36.8667197 C43.0282273,36.3378561 42.6047424,35.9143712 42.0768636,35.9143712" id="Fill-3"></path>
                    <path d="M60.882447,15.3868788 L58.5335833,13.4250606 L50.0294167,22.7003636 L50.0294167,57.0154394 C50.0294167,57.5383939 50.4578258,57.966803 50.9797955,57.966803 L63.9197197,57.966803 C64.4475985,57.966803 64.8760076,57.5433182 64.8760076,57.0154394 L64.8760076,15.7059697 C64.8208561,15.7345303 64.7716136,15.7758939 64.7164621,15.7995303 C64.223053,16.0585455 63.6666136,16.1983939 63.1082045,16.1983939 C62.2976742,16.1983939 61.5058561,15.9098333 60.882447,15.3868788" id="Fill-5"></path>
                    <path d="M1.90765152,36.8753864 C2.40992424,36.8753864 2.90825758,36.676447 3.28643939,36.2874318 L15.4601515,23.6173561 L36.7693182,31.4587197 C37.4971212,31.7226591 38.3125758,31.5286439 38.8355303,30.956447 L58.4586364,9.55175 L63.0480303,13.3906894 C63.2725758,13.5738712 63.5857576,13.6083409 63.8447727,13.4753864 C64.1047727,13.3394773 64.2584091,13.06175 64.2337879,12.7672803 L63.2381061,1.64538636 C63.2036364,1.24652273 62.8490909,0.953037879 62.4512121,0.987507576 L51.3224242,1.98318939 C51.0348485,2.00879545 50.7906061,2.20773485 50.7009848,2.48644697 C50.6714394,2.57606818 50.6615909,2.66962879 50.6714394,2.76515909 C50.6852273,2.95425 50.7758333,3.12856818 50.9255303,3.25265909 L55.5247727,7.10144697 L36.8894697,27.4306894 L15.6098485,19.6040985 C14.8968182,19.3440985 14.1000758,19.5243258 13.5731818,20.0719015 L0.533787879,33.6440985 C-0.198939394,34.4063712 -0.173333333,35.6108409 0.587954545,36.3425833 C0.957272727,36.6971288 1.43,36.8753864 1.90765152,36.8753864" id="Fill-8"></path>
                </g>
            </g>
        </g>
    </g>
</svg>
